svg/emoji_u1f3d3.svg

<svg width="128" height="128" viewBox="0 0 128 128" fill="none" xmlns="http://www.w3.org/2000/svg">
<path d="M40.7701 61.97C40.7701 61.97 31.5301 65.85 31.7901 66.94C32.0501 68.04 33.6601 70.62 34.6301 72.82C35.3201 74.39 36.6301 77.08 36.3701 79.41C36.1101 81.74 34.8201 85.87 34.8201 85.87L48.6501 97.56C48.6501 97.56 51.1801 94.84 55.1601 93.62C59.0301 92.43 61.9601 93.18 63.4401 93.3C65.9601 93.49 69.6401 93.82 70.1601 93.56C71.2501 93.02 55.7501 73.02 55.7501 73.02L40.7701 61.97Z" fill="#FDD083" style="fill:#FDD083;fill:color(display-p3 0.9922 0.8157 0.5137);fill-opacity:1;"/>
<path d="M42.04 73.01C42.04 73.01 33.8 86.39 28.43 93.95C23.06 101.51 18.48 107.07 17.83 107.78C17.18 108.49 13.76 111.27 13.95 112.82C14.14 114.37 17.96 116.89 21.77 119.6C25.58 122.31 28.75 125.16 30.17 124.64C31.59 124.12 35.5 117.02 37.92 113.53C42.42 107.05 59.05 83.64 59.05 83.64L42.04 73.01Z" fill="#F3A25A" style="fill:#F3A25A;fill:color(display-p3 0.9529 0.6353 0.3529);fill-opacity:1;"/>
<path d="M41.0099 82.3799C41.3999 82.3799 41.1599 85.6799 44.1899 87.5499C47.2299 89.4199 49.5999 88.9699 49.9299 89.3599C50.0699 89.5199 46.5699 94.5999 42.4999 100.41C37.2899 107.85 31.5099 115.7 30.9999 116.5C30.2899 117.6 28.1599 119.41 25.8899 117.99C23.6599 116.59 21.2599 114.75 20.4199 113.39C19.5799 112.03 20.4599 110.75 21.7499 109.07C22.4599 108.15 27.5599 101.14 32.5399 94.1399C36.6399 88.3999 40.6899 82.3799 41.0099 82.3799Z" fill="#FDD083" style="fill:#FDD083;fill:color(display-p3 0.9922 0.8157 0.5137);fill-opacity:1;"/>
<path d="M31.7899 66.95L68.4699 93.74C68.4699 93.74 78.7099 94.99 85.5299 91.52C92.3499 88.05 100.03 82.85 107.44 69.13C115.1 54.94 122.16 28.91 96.9099 12.8C71.6599 -3.30997 49.1399 16.75 42.5599 24.53C35.9799 32.31 29.9199 41.53 29.3899 52.54C28.8999 62.48 31.7899 66.95 31.7899 66.95Z" fill="#FF4F28" style="fill:#FF4F28;fill:color(display-p3 1.0000 0.3098 0.1569);fill-opacity:1;"/>
<path d="M84.8574 58.5312C73.6874 58.5412 66.8474 68.3912 68.1474 79.5612C69.4474 90.7312 83.3074 91.9512 83.3074 91.9512L101.237 74.9212L102.457 73.0512C102.467 73.0412 101.527 58.5112 84.8574 58.5312Z" fill="#EE3E23" style="fill:#EE3E23;fill:color(display-p3 0.9333 0.2431 0.1373);fill-opacity:1;"/>
<path d="M85.4144 70.4753C79.0444 75.1653 76.1244 85.2253 81.4244 93.2153C86.1144 100.285 98.1644 103.645 106.614 96.3953C115.484 88.7853 112.394 76.7453 107.754 72.1054C101.554 65.9153 91.6044 65.9153 85.4144 70.4753Z" fill="#D8CDC9" style="fill:#D8CDC9;fill:color(display-p3 0.8471 0.8039 0.7882);fill-opacity:1;"/>
<path d="M86.8844 73.4153C82.7244 77.4853 81.6644 85.4753 86.9644 89.4653C91.8844 93.1753 98.6244 92.7253 102.454 88.1653C106.444 83.4153 104.654 75.2853 100.904 72.7553C97.8644 70.7153 91.4544 68.9253 86.8844 73.4153Z" fill="#EAEBEB" style="fill:#EAEBEB;fill:color(display-p3 0.9176 0.9216 0.9216);fill-opacity:1;"/>
<path d="M85.5689 84.9895C87.2251 84.8203 87.4388 83.3511 87.8039 80.5195C88.1423 77.9016 90.6978 74.8118 92.9328 74.3132C95.3459 73.7789 96.7617 73.7522 96.7528 72.2295C96.7349 70.422 93.1821 69.0151 89.1306 70.8405C85.0168 72.6926 82.9243 77.6256 82.9243 80.8489C82.9243 84.1346 83.9839 85.1497 85.5689 84.9895Z" fill="#FEFFFF" style="fill:#FEFFFF;fill:color(display-p3 0.9961 1.0000 1.0000);fill-opacity:1;"/>
</svg>

<?xml version="1.0" encoding="utf-8"?>
<!-- Generator: Adobe Illustrator 25.2.3, SVG Export Plug-In . SVG Version: 6.00 Build 0)  -->
<svg version="1.1" id="Layer_2" xmlns="http://www.w3.org/2000/svg" xmlns:xlink="http://www.w3.org/1999/xlink" x="0px" y="0px"
	 viewBox="0 0 128 128" style="enable-background:new 0 0 128 128;" xml:space="preserve">
<path style="fill:#FDD083;" d="M40.77,61.97c0,0-9.24,3.88-8.98,4.97c0.26,1.1,1.87,3.68,2.84,5.88c0.69,1.57,2,4.26,1.74,6.59
	s-1.55,6.46-1.55,6.46l13.83,11.69c0,0,2.53-2.72,6.51-3.94c3.87-1.19,6.8-0.44,8.28-0.32c2.52,0.19,6.2,0.52,6.72,0.26
	c1.09-0.54-14.41-20.54-14.41-20.54L40.77,61.97z"/>
<path style="fill:#F3A25A;" d="M42.04,73.01c0,0-8.24,13.38-13.61,20.94s-9.95,13.12-10.6,13.83c-0.65,0.71-4.07,3.49-3.88,5.04
	c0.19,1.55,4.01,4.07,7.82,6.78c3.81,2.71,6.98,5.56,8.4,5.04s5.33-7.62,7.75-11.11c4.5-6.48,21.13-29.89,21.13-29.89L42.04,73.01z"
	/>
<path style="fill:#FDD083;" d="M41.01,82.38c0.39,0,0.15,3.3,3.18,5.17c3.04,1.87,5.41,1.42,5.74,1.81
	c0.14,0.16-3.36,5.24-7.43,11.05c-5.21,7.44-10.99,15.29-11.5,16.09c-0.71,1.1-2.84,2.91-5.11,1.49c-2.23-1.4-4.63-3.24-5.47-4.6
	c-0.84-1.36,0.04-2.64,1.33-4.32c0.71-0.92,5.81-7.93,10.79-14.93C36.64,88.4,40.69,82.38,41.01,82.38z"/>
<path style="fill:#FF4F28;" d="M31.79,66.95l36.68,26.79c0,0,10.24,1.25,17.06-2.22s14.5-8.67,21.91-22.39
	c7.66-14.19,14.72-40.22-10.53-56.33s-47.77,3.95-54.35,11.73s-12.64,17-13.17,28.01C28.9,62.48,31.79,66.95,31.79,66.95z"/>
<path style="fill:#EE3E23;" d="M53.72,47.69c11.17-0.01,18.01-9.86,16.71-21.03S55.27,14.27,55.27,14.27L37.34,31.3l-1.22,1.87
	C36.11,33.18,37.05,47.71,53.72,47.69z"/>
<path style="fill:#D8CDC9;" d="M40.19,7.01c-6.37,4.69-9.29,14.75-3.99,22.74c4.69,7.07,16.74,10.43,25.19,3.18
	c8.87-7.61,5.78-19.65,1.14-24.29C56.33,2.45,46.38,2.45,40.19,7.01z"/>
<path style="fill:#EAEBEB;" d="M41.66,9.95C37.5,14.02,36.44,22.01,41.74,26c4.92,3.71,11.66,3.26,15.49-1.3
	c3.99-4.75,2.2-12.88-1.55-15.41C52.64,7.25,46.23,5.46,41.66,9.95z"/>
<path style="fill:#FEFFFF;" d="M40.67,23.37c1.86-0.19,2.1-1.84,2.51-5.02c0.38-2.94,3.25-6.41,5.76-6.97
	c2.71-0.6,4.3-0.63,4.29-2.34c-0.02-2.03-4.01-3.61-8.56-1.56c-4.62,2.08-6.97,7.62-6.97,11.24C37.7,22.41,38.89,23.55,40.67,23.37z
	"/>
</svg>
